icons/svg/onedrive.svg

﻿<?xml version="1.0" encoding="utf-8"?>
<!DOCTYPE svg PUBLIC "-//W3C//DTD SVG 1.1//EN" "http://www.w3.org/Graphics/SVG/1.1/DTD/svg11.dtd">
<svg xmlns="http://www.w3.org/2000/svg" xmlns:xlink="http://www.w3.org/1999/xlink" version="1.1" baseProfile="full" width="24" height="24" viewBox="0 0 24.00 24.00" enable-background="new 0 0 24.00 24.00" xml:space="preserve">
	<path fill="#000000" fill-opacity="1" stroke-linejoin="round" d="M 20.077,13.64C 21.1664,13.8102 22,14.7525 22,15.8896C 22,16.778 21.491,17.547 20.749,17.9223L 20.5785,18L 9.17854,18L 9.16174,18L 9.16174,17.9996C 7.71226,17.9905 6.53995,16.8131 6.53995,15.3614C 6.53995,13.9042 7.72129,12.7228 9.17854,12.7228L 9.39597,12.7325L 9.38921,12.5302C 9.38921,10.7063 10.8678,9.22772 12.6917,9.22772C 13.973,9.22772 15.0832,9.95803 15.6307,11.0247C 16.0836,10.7276 16.6248,10.5542 17.207,10.5542C 18.7966,10.5542 20.0853,11.8429 20.0853,13.4325L 20.077,13.64 Z M 8.82283,12.1583C 7.21257,12.3359 5.95591,13.7046 5.95591,15.3614C 5.95591,16.0361 6.16601,16.6637 6.52364,17.1826L 4.73244,17.1826C 3.22335,17.1826 2,15.9593 2,14.4502C 2,13.0079 3.11775,11.8274 4.53416,11.7257L 4.46128,11.0607C 4.46128,9.36155 5.83873,7.98411 7.53788,7.98411C 8.1748,7.98411 8.76651,8.17767 9.25741,8.50914C 9.95457,7.11159 11.3974,6.15112 13.0653,6.15112C 15.2686,6.15112 17.0806,7.82625 17.2974,9.97239L 17.207,9.9702C 16.7332,9.9702 16.2694,10.0663 15.84,10.2512C 15.1156,9.24736 13.9552,8.64369 12.6917,8.64369C 10.6741,8.64369 9.01064,10.1891 8.82283,12.1583 Z "/>
</svg>

<svg xmlns="http://www.w3.org/2000/svg" version="1.1" baseProfile="full" width="24" height="24" viewBox="0 0 24.00 24.00" xml:space="preserve"><path fill="#000" fill-opacity="1" stroke-linejoin="round" d="M20.077 13.64c1.09.17 1.923 1.112 1.923 2.25 0 .888-.51 1.657-1.25 2.032l-.172.078H9.162c-1.45-.01-2.622-1.187-2.622-2.64 0-1.456 1.18-2.637 2.64-2.637l.216.01-.007-.203c0-1.824 1.478-3.302 3.302-3.302 1.28 0 2.39.73 2.94 1.797.452-.297.993-.47 1.575-.47 1.59 0 2.878 1.288 2.878 2.877l-.008.208zM8.823 12.158c-1.61.178-2.867 1.547-2.867 3.203 0 .676.21 1.304.568 1.823H4.732C3.222 17.183 2 15.96 2 14.45c0-1.442 1.118-2.623 2.534-2.724l-.073-.665c0-1.698 1.38-3.076 3.078-3.076.637 0 1.23.194 1.72.525.697-1.398 2.14-2.36 3.807-2.36 2.204 0 4.016 1.676 4.232 3.822l-.09-.002c-.474 0-.938.096-1.367.28-.724-1.003-1.885-1.606-3.148-1.606-2.018 0-3.68 1.545-3.87 3.514z"/></svg>
